dist/assets/img/viber.svg

<svg width="25" height="25" viewBox="0 0 25 25" fill="none" xmlns="http://www.w3.org/2000/svg">
<path d="M12.5 25C19.4036 25 25 19.4036 25 12.5C25 5.59644 19.4036 0 12.5 0C5.59644 0 0 5.59644 0 12.5C0 19.4036 5.59644 25 12.5 25Z" fill="#6F3FAA"/>
<path d="M19.1129 8.78542L19.1088 8.76892C18.7749 7.41868 17.2691 5.96985 15.8863 5.66843L15.8707 5.66521C13.6341 5.23855 11.3663 5.23855 9.13013 5.66521L9.11406 5.66843C7.73174 5.96985 6.22593 7.41877 5.8915 8.76892L5.88779 8.78542C5.4749 10.671 5.4749 12.5833 5.88779 14.4689L5.8915 14.4854C6.21172 15.778 7.60532 17.1603 8.93652 17.5405V19.0477C8.93652 19.5932 9.60132 19.8612 9.97935 19.4675L11.5064 17.8801C11.8377 17.8986 12.1691 17.909 12.5004 17.909C13.6262 17.909 14.7526 17.8025 15.8707 17.5892L15.8862 17.586C17.269 17.2845 18.7748 15.8356 19.1088 14.4855L19.1129 14.469C19.5258 12.5833 19.5258 10.6711 19.1129 8.78542ZM17.9044 14.1955C17.6814 15.0764 16.5381 16.1716 15.6297 16.3739C14.4405 16.6001 13.2418 16.6967 12.0444 16.6636C12.0206 16.6629 11.9977 16.6721 11.9811 16.6892C11.8111 16.8636 10.8661 17.8339 10.8661 17.8339L9.68018 19.0511C9.59346 19.1415 9.44111 19.0799 9.44111 18.9552V16.4583C9.44111 16.417 9.41167 16.382 9.37114 16.374C9.3709 16.3739 9.3707 16.3739 9.37046 16.3739C8.46206 16.1715 7.31919 15.0764 7.0958 14.1955C6.72417 12.4911 6.72417 10.7633 7.0958 9.05886C7.31919 8.17795 8.46206 7.08284 9.37046 6.88049C11.4474 6.48547 13.5533 6.48547 15.6298 6.88049C16.5386 7.08284 17.6814 8.17795 17.9044 9.05886C18.2765 10.7633 18.2765 12.4911 17.9044 14.1955Z" fill="white"/>
<path d="M14.4761 15.3482C14.3364 15.3057 14.2034 15.2773 14.0797 15.226C12.7989 14.6946 11.6202 14.0091 10.6865 12.9583C10.1556 12.3607 9.73999 11.6861 9.38872 10.9721C9.22212 10.6335 9.08174 10.2817 8.93862 9.9321C8.80815 9.61335 9.00034 9.28405 9.20268 9.04382C9.39258 8.81838 9.63696 8.64592 9.90161 8.51872C10.1082 8.4195 10.3119 8.47673 10.4627 8.65178C10.7888 9.03029 11.0884 9.42814 11.3309 9.86691C11.4801 10.1368 11.4392 10.4667 11.1688 10.6503C11.1031 10.6949 11.0432 10.7474 10.982 10.7978C10.9283 10.842 10.8778 10.8866 10.841 10.9464C10.7738 11.0558 10.7706 11.185 10.8138 11.304C11.1472 12.22 11.709 12.9324 12.6312 13.3162C12.7787 13.3776 12.9269 13.449 13.0969 13.4292C13.3815 13.396 13.4737 13.0837 13.6732 12.9205C13.8682 12.7611 14.1174 12.759 14.3274 12.8919C14.5375 13.0249 14.7412 13.1676 14.9436 13.3119C15.1423 13.4535 15.3401 13.5919 15.5234 13.7534C15.6997 13.9086 15.7604 14.1122 15.6611 14.3228C15.4794 14.7086 15.215 15.0295 14.8337 15.2343C14.7261 15.2921 14.5975 15.3108 14.4761 15.3482C14.3364 15.3057 14.5975 15.3108 14.4761 15.3482Z" fill="white"/>
<path d="M12.5036 8.07708C14.1788 8.12405 15.5548 9.23582 15.8497 10.8921C15.9 11.1743 15.9178 11.4628 15.9402 11.7492C15.9496 11.8697 15.8814 11.9842 15.7514 11.9858C15.6171 11.9874 15.5567 11.875 15.5479 11.7546C15.5307 11.5162 15.5187 11.2767 15.4858 11.0404C15.3125 9.79241 14.3173 8.75994 13.0752 8.53841C12.8882 8.50506 12.697 8.49632 12.5076 8.47644C12.3879 8.46389 12.2312 8.45667 12.2046 8.30784C12.1824 8.18308 12.2877 8.08377 12.4065 8.07737C12.4387 8.07547 12.4711 8.07698 12.5036 8.07708C14.1789 8.12405 12.4711 8.07698 12.5036 8.07708Z" fill="white"/>
<path d="M15.0495 11.3777C15.0467 11.3987 15.0453 11.4479 15.033 11.4942C14.9886 11.6623 14.7335 11.6834 14.6749 11.5137C14.6574 11.4633 14.6548 11.406 14.6547 11.3518C14.6542 10.997 14.5771 10.6425 14.3981 10.3338C14.2142 10.0165 13.9331 9.74982 13.6036 9.58834C13.4043 9.49078 13.1888 9.43009 12.9703 9.39401C12.8749 9.37819 12.7784 9.36866 12.6824 9.35529C12.5662 9.33912 12.5041 9.26505 12.5096 9.1505C12.5147 9.04318 12.5932 8.96588 12.7102 8.97257C13.0946 8.99435 13.466 9.07755 13.8079 9.25851C14.5029 9.62662 14.9 10.2076 15.0159 10.9834C15.0211 11.0186 15.0295 11.0534 15.0322 11.0886C15.0387 11.1756 15.0429 11.2628 15.0495 11.3777C15.0467 11.3986 15.0429 11.2628 15.0495 11.3777Z" fill="white"/>
<path d="M14.0074 11.3372C13.8673 11.3397 13.7923 11.2621 13.7778 11.1337C13.7677 11.0441 13.7597 10.9533 13.7384 10.8661C13.6963 10.6944 13.605 10.5353 13.4606 10.4301C13.3924 10.3804 13.3151 10.3442 13.2342 10.3208C13.1314 10.2911 13.0246 10.2993 12.9221 10.2742C12.8107 10.2469 12.7491 10.1566 12.7666 10.0522C12.7825 9.95707 12.875 9.88286 12.979 9.89042C13.6285 9.9373 14.0927 10.2731 14.159 11.0377C14.1637 11.0917 14.1692 11.1487 14.1572 11.2004C14.1366 11.2886 14.0712 11.3329 14.0074 11.3372C13.8672 11.3397 14.0712 11.3329 14.0074 11.3372Z" fill="white"/>
<path d="M14.4759 15.3478C14.5973 15.3104 14.3363 15.3054 14.4759 15.3478V15.3478Z" fill="white"/>
<path d="M12.5067 8.07835C12.5055 8.07835 12.5044 8.07817 12.5033 8.07817C12.5022 8.07805 12.5036 8.07817 12.5067 8.07835Z" fill="white"/>
<path d="M12.5044 8.07739C12.5058 8.07739 12.5072 8.07754 12.5086 8.07754C12.6016 8.08086 14.1137 8.12251 12.5044 8.07739Z" fill="white"/>
<path d="M15.0501 11.3778C15.0434 11.2629 15.0473 11.3987 15.0501 11.3778V11.3778Z" fill="white"/>
<path d="M14.0077 11.338C14.0099 11.3377 14.012 11.3361 14.0141 11.3357C14.0082 11.3357 13.9991 11.3359 13.9897 11.3364C13.9958 11.3366 14.0013 11.338 14.0077 11.338Z" fill="white"/>
<path d="M14.0078 11.338C14.0015 11.3381 13.996 11.3367 13.9899 11.3364C13.9596 11.3377 13.9283 11.3401 14.0078 11.338Z" fill="white"/>
<path d="M14.0147 11.3357C14.0125 11.3361 14.0104 11.3377 14.0083 11.338C14.0247 11.3363 14.0233 11.3357 14.0147 11.3357Z" fill="white"/>
<path d="M13.7118 10.1328L13.4126 10.398C13.4291 10.4081 13.4453 10.4185 13.4609 10.4299C13.6054 10.5351 13.6966 10.6942 13.7387 10.8659C13.7601 10.9531 13.768 11.0438 13.7781 11.1335C13.7919 11.2562 13.8616 11.3316 13.9898 11.336C13.9992 11.3358 14.0084 11.3356 14.0142 11.3355C14.0759 11.3287 14.1377 11.2854 14.1575 11.2001C14.1695 11.1485 14.164 11.0914 14.1593 11.0375C14.1221 10.61 13.9605 10.3167 13.7118 10.1328Z" fill="#D1D1D1"/>
</svg>

<svg width="25" height="25" fill="none" xmlns="http://www.w3.org/2000/svg"><path d="M12.5 25C19.404 25 25 19.404 25 12.5S19.404 0 12.5 0 0 5.596 0 12.5 5.596 25 12.5 25z" fill="#6F3FAA"/><path d="M19.113 8.785l-.004-.016c-.334-1.35-1.84-2.8-3.223-3.1l-.015-.004a17.908 17.908 0 00-6.74 0l-.017.003c-1.382.302-2.888 1.75-3.223 3.1l-.003.017a13.194 13.194 0 000 5.684l.003.016c.32 1.293 1.714 2.675 3.046 3.056v1.507c0 .545.664.813 1.042.42l1.527-1.588a17.828 17.828 0 004.365-.29l.015-.004c1.383-.301 2.889-1.75 3.223-3.1l.004-.017a13.194 13.194 0 000-5.684zm-1.209 5.41c-.223.881-1.366 1.977-2.274 2.179a16.72 16.72 0 01-3.586.29.085.085 0 00-.063.025l-1.115 1.145L9.68 19.05a.139.139 0 01-.239-.096v-2.497a.086.086 0 00-.07-.084c-.909-.202-2.052-1.298-2.275-2.178a11.972 11.972 0 010-5.137c.223-.881 1.366-1.976 2.274-2.179a16.679 16.679 0 016.26 0c.909.203 2.051 1.298 2.274 2.179a11.958 11.958 0 010 5.136z" fill="#fff"/><path d="M14.476 15.348c-.14-.042-.273-.07-.396-.122-1.281-.531-2.46-1.217-3.393-2.268-.531-.597-.947-1.272-1.298-1.986-.167-.338-.307-.69-.45-1.04-.13-.319.061-.648.264-.888.19-.226.434-.398.699-.525.206-.1.41-.042.56.133.327.378.626.776.869 1.215.15.27.108.6-.162.783-.066.045-.126.097-.187.148a.613.613 0 00-.141.148.408.408 0 00-.027.358c.333.916.895 1.628 1.817 2.012.148.062.296.133.466.113.285-.033.377-.345.576-.508a.543.543 0 01.654-.03c.21.134.414.277.617.42.198.143.396.28.58.442.176.156.236.36.137.57-.182.386-.446.707-.827.911-.108.058-.236.077-.358.114-.14-.042.121-.037 0 0zm-1.972-7.271c1.675.047 3.05 1.159 3.346 2.815.05.282.068.57.09.857.01.12-.059.235-.189.237-.134.001-.194-.111-.203-.231-.017-.239-.03-.478-.062-.715a2.993 2.993 0 00-2.41-2.502c-.188-.033-.379-.042-.568-.062-.12-.012-.277-.02-.303-.168-.023-.125.083-.224.201-.23.033-.003.065-.001.098 0 1.675.046-.033-.001 0 0z" fill="#fff"/><path d="M15.05 11.378c-.003.02-.005.07-.017.116-.044.168-.3.19-.358.02a.504.504 0 01-.02-.162c0-.355-.078-.71-.257-1.018a1.895 1.895 0 00-.794-.746 2.283 2.283 0 00-.634-.194c-.095-.016-.192-.025-.288-.039-.116-.016-.178-.09-.172-.205.005-.107.083-.184.2-.177.385.021.756.105 1.098.286.695.368 1.092.949 1.208 1.724.005.036.014.07.016.106.007.087.01.174.018.289-.003.02-.007-.115 0 0z" fill="#fff"/><path d="M14.007 11.337c-.14.003-.215-.075-.23-.203-.01-.09-.017-.18-.039-.268a.753.753 0 00-.277-.436.727.727 0 00-.227-.11c-.103-.029-.21-.02-.312-.046-.111-.027-.173-.117-.155-.222a.201.201 0 01.212-.162c.65.047 1.114.383 1.18 1.148.005.054.01.11-.002.162-.02.089-.086.133-.15.137-.14.003.064-.004 0 0zm.469 4.011c.121-.038-.14-.043 0 0zm-1.969-7.27h-.004.004zm-.003-.001h.005c.093.004 1.605.046-.005 0zm2.546 3.301c-.007-.115-.003.02 0 0z" fill="#fff"/><path d="M14.008 11.338l.006-.002h-.024l.018.002zm0 0l-.018-.002c-.03.002-.062.004.018.002zm.007-.002l-.007.002c.017-.002.015-.002.007-.002z" fill="#fff"/><path d="M13.712 10.133l-.3.265a.753.753 0 01.326.468c.022.087.03.178.04.268.014.122.084.198.212.202h.024a.166.166 0 00.144-.136.55.55 0 00.001-.162c-.037-.428-.199-.721-.447-.905z" fill="#D1D1D1"/></svg>
